X: 125
T: Ni qishang louzi wo qishang ma
%%abc-version 2.0
%%abcx-abcm2ps-target-version 5.9.1 (29 Sep 2008)
%%abc-creator hum2abc beta
%%abcx-conversion-date 2013/10/02 07:52:29
%%abc-edited-by Helmut Schaffrath
%%humdrum-veritas 1369321713
%%humdrum-veritas-data 1255664024
%%continueall 1
%%barnumbers 0
L: 1/16
M: 2/4
K: F
c2 f2 c2 B c [I:setbarnb 1]| 
G c F D2< C2 F | 
A G F D C2 F G | 
c6B c | 
A G F D C2 F G | 
c2 B c G A F D | 
C2 C F A G F D | 
C8 |]  



